X:126
T:Fannie's Festival
S:American Veteran Fifer #126
C:By A.F. Hopkins, Fife Major N.A. of C.W.M.
M:2/4
L:1/8
Q:1/8=180
K:D 
%%MIDI program 72
%%MIDI transpose 8
%%MIDI ratio 3 1
(f/a/)f/A/ e(f/a/) | (e/a/)e/A/ d(e/a/) | d/e/d/A/ cd | cB- B/c/e/c/ |
[1 d/e/c/E/ Gc | dc- c/d/c/d/ | e/g/e/c/ de | gf f/A/d/e/ :|
[2 d/e/d/B/ A/F/A/B/ | c/d/e/d/ gf | e/f/e/d/ fe | dfd ||
 z |: a4- | afed | ff- f/a/f/e/ | d/f/e/d/ BA |
[1 cc- c/d/c/B/ | A/c/e/f/ eA | dd- d/e/d/B/ | A/d/f/a/ fe :|
[2 d/e/d/c/ d/e/d/B/ | A/F/A/d/ gf | e/f/e/d/ fe | dfd z |



